**kern	**kern	**dynam
*part1	*part1	*part1
*staff2	*staff1	*
*I"Piano	*	*
*clefF4	*clefG2	*
*k[]	*k[]	*
=1	=1	=1
8DD 8D	8d 8f	.
8r	8r	.
8CC#X 8C#X	8a 8ee 8aa	f
8r	8r	.
8DD 8D	8f 8dd 8ff	f
8r	8r	.
8FF 8F	8f 8a 8dd	f
8r	8r	.
=	=	=
2GG^ 2G	2e 2g 2cc	.
2GGG 2GG	2F^< 2G< 2B< 2d<	.
=	=	=
2CC 2GG	2E< 2G< 2c<	.
2AA 2C	2E-X< 2F#X< 2A< 2c<	p
=	=	=
2GGG 2GG	2fn 2g 2b 2dd 2gg	p
2GG 2D	2Fn< 2G< 2B<	.
=	=	=
2CC 2GG 2C	2e 2g 2cc	p
2AA 2C	2E-X< 2F#X< 2A< 2c<	.
=	=	=
2GGG 2GG	2fn 2g 2b 2dd 2gg	p
2GG 2D	2Fn< 2G< 2B<	.
=	=	=
2CC 2GG 2C	2e 2g 2cc	p
2r	2r	.
=	=	=
2CCC 2CC 2GG 2C	2E< 2G< 2c<	p
2r	2r	.
=	=	=
2CCC 2CC 2GG 2C	2E< 2G< 2c<	p
*^	*	*
2r	2ryy	2r	.
*v	*v	*	*
==	==	==
*-	*-	*-
!!!system-decoration: {(s1,s2)}
!!!RDF**kern: < = below
